gama.ui.shared/icons_svg/light/status/status.compile.svg

<svg height="24.75" viewBox="270.702 -3498.186 24.75 24.75" width="24.75" xmlns="http://www.w3.org/2000/svg"><path d="m290.3651-3490.1877v10.3771c0 1.1046-.89538 1.9999-1.9999 1.9999h-8.79955c-1.10451 0-1.9999-.8953-1.9999-1.9999v-11.9994c0-1.1045.89539-2 1.9999-2h7.17725c.1062-.0066.21674.029.3052.1173l3.19986 3.1997c.08848.0886.12388.199.11714.3053zm-3.9998-2.8223h-6.79965c-.66271 0-1.19995.5373-1.19995 1.2v11.9994c0 .6626.53724 1.2 1.19995 1.2h8.79955c.6627 0 1.19995-.5374 1.19995-1.2v-9.9994h-2.79985c-.2209 0-.4-.179-.4-.4zm.79997.5657v1.8343h1.83423zm-5.9997 5.0333c-.2209 0-.39997-.179-.39997-.4s.17907-.4.39997-.4h5.59973c.2209 0 .39997.179.39997.4s-.17907.4-.39997.4zm0 2.4c-.2209 0-.39997-.179-.39997-.4s.17907-.4.39997-.4h5.59973c.2209 0 .39997.179.39997.4s-.17907.4-.39997.4zm0 2.3998c-.2209 0-.39997-.1791-.39997-.4 0-.2208.17907-.3998.39997-.3998h3.9998c.2209 0 .39998.179.39998.3998 0 .2209-.17908.4-.39998.4z" fill="#666"/></svg>

<?xml version="1.0" encoding="UTF-8" standalone="no"?>
<!DOCTYPE svg PUBLIC "-//W3C//DTD SVG 1.1//EN" "http://www.w3.org/Graphics/SVG/1.1/DTD/svg11.dtd">
<svg xmlns:dc="http://purl.org/dc/elements/1.1/" xmlns="http://www.w3.org/2000/svg" xmlns:xl="http://www.w3.org/1999/xlink" version="1.1" viewBox="270.70194 -3498.1857 24.75 24.75" width="24.75" height="24.75">
  <defs/>
  <g id="SOURCES" stroke="none" stroke-opacity="1" fill="none" stroke-dasharray="none" fill-opacity="1">
    <title>SOURCES</title>
    <g id="SOURCES_Calque_1">
      <title>Calque 1</title>
      <g id="Graphic_6314">
        <path d="M 290.3651 -3490.1877 L 290.3651 -3479.8106 C 290.3651 -3478.706 289.46972 -3477.8107 288.3652 -3477.8107 L 279.56565 -3477.8107 C 278.46114 -3477.8107 277.56575 -3478.706 277.56575 -3479.8106 L 277.56575 -3491.81 C 277.56575 -3492.9145 278.46114 -3493.81 279.56565 -3493.81 L 286.7429 -3493.81 C 286.8491 -3493.8166 286.95964 -3493.781 287.0481 -3493.6927 L 290.24796 -3490.493 C 290.33644 -3490.4044 290.37184 -3490.294 290.3651 -3490.1877 Z M 286.3653 -3493.01 L 279.56565 -3493.01 C 278.90294 -3493.01 278.3657 -3492.4727 278.3657 -3491.81 L 278.3657 -3479.8106 C 278.3657 -3479.148 278.90294 -3478.6106 279.56565 -3478.6106 L 288.3652 -3478.6106 C 289.0279 -3478.6106 289.56515 -3479.148 289.56515 -3479.8106 L 289.56515 -3489.81 L 286.7653 -3489.81 C 286.5444 -3489.81 286.3653 -3489.989 286.3653 -3490.21 Z M 287.16527 -3492.4443 L 287.16527 -3490.61 L 288.9995 -3490.61 Z M 281.16557 -3487.411 C 280.94467 -3487.411 280.7656 -3487.59 280.7656 -3487.811 C 280.7656 -3488.032 280.94467 -3488.211 281.16557 -3488.211 L 286.7653 -3488.211 C 286.9862 -3488.211 287.16527 -3488.032 287.16527 -3487.811 C 287.16527 -3487.59 286.9862 -3487.411 286.7653 -3487.411 Z M 281.16557 -3485.011 C 280.94467 -3485.011 280.7656 -3485.19 280.7656 -3485.411 C 280.7656 -3485.632 280.94467 -3485.811 281.16557 -3485.811 L 286.7653 -3485.811 C 286.9862 -3485.811 287.16527 -3485.632 287.16527 -3485.411 C 287.16527 -3485.19 286.9862 -3485.011 286.7653 -3485.011 Z M 281.16557 -3482.6112 C 280.94467 -3482.6112 280.7656 -3482.7903 280.7656 -3483.0112 C 280.7656 -3483.232 280.94467 -3483.411 281.16557 -3483.411 L 285.16537 -3483.411 C 285.38627 -3483.411 285.56535 -3483.232 285.56535 -3483.0112 C 285.56535 -3482.7903 285.38627 -3482.6112 285.16537 -3482.6112 Z" fill="#666"/>
      </g>
      <g id="Graphic_6322"/>
    </g>
  </g>
</svg>
